!!!OTL: Shehui zhuyi haoshiguang
!!!ARE: Asia, China,ÿNingxia Guyuan
!! I, 160, 1)
!!!SCT: C1826
!!!YEM: Copyright 1995, estate of Helmut Schaffrath.
**kern
*ICvox
*Ivox
*M3/8
*k[b-e-]
*B-:
{4.ccc}
=1
{16ccc
16ddd
16bb-
16gg
8gg
=2
8bb-
4ccc
=3
16ccc
16ddd
16bb-
16ccc
8bb-
=4
16bb-
16gg
4gg}
=5
{8ccc
8ccc
8ccc
=6
8ff
16gg
16bb-
8gg
=7
8ccc
4ccc}
=8
{8ccc
16ccc
16bb-
16gg
16bb-
=9
8gg
16ff
16dd
8cc
=10
8ff
4ff}
==
!!!AGN: Shange, Huar
!! Hui
!!!ONB: ESAC (Essen Associative Code) Database: SENGANSU
!!!AMT: simple triple
!!!AIN: vox
!!!EED: Helmut Schaffrath
!!!EEV: 1.0
*-
